src/assets/Imgs/profile/discord.svg

<svg fill="none" height="32" viewBox="0 0 32 32" width="32" xmlns="http://www.w3.org/2000/svg"><rect fill="#4a4bda" height="32" rx="8" width="32"/><path clip-rule="evenodd" d="m19.8082 21.507s-.4931-.5891-.9041-1.1096c1.7945-.5069 2.4795-1.6302 2.4795-1.6302-.5617.3699-1.0959.6302-1.5754.8083-.6849.2876-1.3424.4794-1.9863.589-1.315.2466-2.5205.1781-3.5479-.0137-.7808-.1507-1.4521-.3699-2.0137-.589-.3151-.1233-.6576-.274-1-.4658-.0206-.0137-.0411-.024-.0617-.0342-.0205-.0103-.0411-.0206-.0616-.0343-.0274-.0137-.0411-.0274-.0548-.0411-.2466-.137-.3836-.2329-.3836-.2329s.6576 1.0959 2.3973 1.6165c-.411.5205-.9178 1.137-.9178 1.137-3.02742-.0959-4.1781-2.0822-4.1781-2.0822 0-4.411 1.9726-7.9863 1.9726-7.9863 1.9726-1.47948 3.8493-1.4384 3.8493-1.4384l.137.1644c-2.4657.7123-3.6027 1.7945-3.6027 1.7945s.3013-.1644.8082-.3972c1.4657-.6439 2.6301-.822 3.1096-.8631l.0307-.0051c.0691-.0118.1304-.0223.2021-.0223.8357-.1095 1.7809-.1369 2.7672-.0273 1.3013.1506 2.6986.5342 4.1233 1.315 0 0-1.0822-1.0274-3.411-1.7397l.1918-.2192s1.8767-.04108 3.8493 1.4384c0 0 1.9726 3.5753 1.9726 7.9863 0 0-1.1644 1.9863-4.1918 2.0822zm-4.8082-5.007c0 .8284-.6716 1.5-1.5 1.5s-1.5-.6716-1.5-1.5.6716-1.5 1.5-1.5 1.5.6716 1.5 1.5zm3.5 1.5c.8284 0 1.5-.6716 1.5-1.5s-.6716-1.5-1.5-1.5-1.5.6716-1.5 1.5.6716 1.5 1.5 1.5z" fill="#fff" fill-rule="evenodd"/></svg>

<svg width="32" height="32" viewBox="0 0 32 32" fill="none" xmlns="http://www.w3.org/2000/svg">
<g id="Dis">
<rect id="Rectangle 2058" width="32" height="32" rx="8" fill="#4A4BDA"/>
<path id="Exclude" fill-rule="evenodd" clip-rule="evenodd" d="M19.8082 21.507C19.8082 21.507 19.3151 20.9179 18.9041 20.3974C20.6986 19.8905 21.3836 18.7672 21.3836 18.7672C20.8219 19.1371 20.2877 19.3974 19.8082 19.5755C19.1233 19.8631 18.4658 20.0549 17.8219 20.1645C16.5069 20.4111 15.3014 20.3426 14.274 20.1508C13.4932 20.0001 12.8219 19.7809 12.2603 19.5618C11.9452 19.4385 11.6027 19.2878 11.2603 19.096C11.2397 19.0823 11.2192 19.072 11.1986 19.0618C11.1781 19.0515 11.1575 19.0412 11.137 19.0275C11.1096 19.0138 11.0959 19.0001 11.0822 18.9864C10.8356 18.8494 10.6986 18.7535 10.6986 18.7535C10.6986 18.7535 11.3562 19.8494 13.0959 20.37C12.6849 20.8905 12.1781 21.507 12.1781 21.507C9.15068 21.4111 8 19.4248 8 19.4248C8 15.0138 9.9726 11.4385 9.9726 11.4385C11.9452 9.95902 13.8219 10.0001 13.8219 10.0001L13.9589 10.1645C11.4932 10.8768 10.3562 11.959 10.3562 11.959C10.3562 11.959 10.6575 11.7946 11.1644 11.5618C12.6301 10.9179 13.7945 10.7398 14.274 10.6987L14.3047 10.6936C14.3738 10.6818 14.4351 10.6713 14.5068 10.6713C15.3425 10.5618 16.2877 10.5344 17.274 10.644C18.5753 10.7946 19.9726 11.1782 21.3973 11.959C21.3973 11.959 20.3151 10.9316 17.9863 10.2193L18.1781 10.0001C18.1781 10.0001 20.0548 9.95902 22.0274 11.4385C22.0274 11.4385 24 15.0138 24 19.4248C24 19.4248 22.8356 21.4111 19.8082 21.507ZM15 16.5C15 17.3284 14.3284 18 13.5 18C12.6716 18 12 17.3284 12 16.5C12 15.6716 12.6716 15 13.5 15C14.3284 15 15 15.6716 15 16.5ZM18.5 18C19.3284 18 20 17.3284 20 16.5C20 15.6716 19.3284 15 18.5 15C17.6716 15 17 15.6716 17 16.5C17 17.3284 17.6716 18 18.5 18Z" fill="white"/>
</g>
</svg>
